!!!SOCIAL_FUNCTION:	miscellaneous dance songs
!!!PDT:	1932
!!!OTL: No_118_Crawfish_Dance_Song.krn
!!!REG: Wisconsin
!!!LANG: Non-Tone
!!!LING_GROUP: Algonquin
**kern
*staff1
=1-
=
*clefF4
*k[f#c#g#d#a#]
*M3/4
2r
8.c#\L
16c#\Jk
=2
4c#\
4B\
8F#\L
8F#\J
=3
2G#\
8.B\L
16G#\Jk
=4
4G#\
4F#\
8C#/L
8C#/J
=5
2F#\
8.G#\L
16G#\Jk
=6
4G#\
8F#\
8r
8F#/L
8C#/J
=7
2F#\
8.G#\L
16G#\Jk
=8
4G#\
4F#\
8F#/L
8C#/J
=9
2F#\
8.G#\L
16G#\Jk
=10
4G#\
4F#\
8C#/L
8C#/J
=11
2.F#\
==:|!
*-
